flaticon/household/table-4.svg

<svg xmlns="http://www.w3.org/2000/svg" width="32" height="32" viewBox="0 0 24 24">
    <path d="M 23.773438 10 L 13.726562 10 C 13.898438 9.644531 14 9.136719 14 8.398438 C 14 7.648438 13.898438 7.394531 13.71875 7.007812 C 13.671875 6.910156 13.621094 6.796875 13.5625 6.652344 L 13.460938 6.398438 L 12.398438 6.398438 L 12.398438 5.367188 L 13.082031 4.683594 C 13.238281 4.527344 13.238281 4.273438 13.082031 4.117188 C 12.925781 3.960938 12.671875 3.960938 12.515625 4.117188 L 12.398438 4.234375 L 12.398438 3.542969 C 13.089844 3.363281 13.601562 2.742188 13.601562 2 L 13.601562 0.800781 L 12.398438 0.800781 L 12.398438 0 L 10.398438 0 L 10.398438 2.398438 C 10.398438 3.144531 10.910156 3.765625 11.601562 3.941406 L 11.601562 5.035156 L 11.484375 4.917969 C 11.328125 4.761719 11.074219 4.761719 10.917969 4.917969 C 10.761719 5.074219 10.761719 5.328125 10.917969 5.484375 L 11.601562 6.164062 L 11.601562 6.398438 L 10.539062 6.398438 L 10.4375 6.652344 C 10.378906 6.796875 10.328125 6.910156 10.28125 7.007812 C 10.101562 7.394531 10 7.648438 10 8.398438 C 10 9.136719 10.101562 9.644531 10.273438 10 L 0 10 L 0 14.398438 L 0.398438 14.398438 L 0.398438 24 L 2.398438 24 L 2.398438 14.398438 L 2.800781 14.398438 L 2.800781 12.398438 L 5.191406 12.398438 C 5.957031 12.769531 6.792969 13.171875 7.625 13.574219 C 10.527344 14.96875 13.425781 16.359375 13.425781 16.359375 L 13.628906 16.457031 L 20.003906 12.398438 L 21.199219 12.398438 L 21.199219 14.398438 L 21.601562 14.398438 L 21.601562 24 L 23.601562 24 L 23.601562 14.398438 L 24 14.398438 L 24 10 Z M 12.800781 1.601562 L 12.800781 2 C 12.800781 2.296875 12.640625 2.554688 12.398438 2.691406 L 12.398438 1.601562 Z M 11.199219 2.398438 L 11.199219 0.800781 L 11.601562 0.800781 L 11.601562 3.09375 C 11.359375 2.953125 11.199219 2.695312 11.199219 2.398438 Z M 10.800781 8.398438 C 10.800781 7.789062 10.863281 7.652344 11.007812 7.347656 C 11.027344 7.300781 11.050781 7.253906 11.074219 7.199219 L 12.925781 7.199219 C 12.949219 7.253906 12.972656 7.300781 12.992188 7.347656 C 13.136719 7.652344 13.199219 7.789062 13.199219 8.398438 C 13.199219 10 12.824219 10 12 10 C 11.175781 10 10.800781 10 10.800781 8.398438 Z M 17.882812 10.800781 L 13.574219 13.542969 C 12.859375 13.199219 10.347656 11.996094 7.867188 10.800781 Z M 1.601562 23.199219 L 1.199219 23.199219 L 1.199219 14.398438 L 1.601562 14.398438 Z M 2 13.601562 L 0.800781 13.601562 L 0.800781 12.398438 L 2 12.398438 Z M 0.800781 11.601562 L 0.800781 10.800781 L 1.9375 10.800781 C 2.203125 10.953125 2.679688 11.183594 3.535156 11.601562 Z M 13.574219 15.542969 C 11.160156 14.386719 6.222656 12.011719 3.71875 10.800781 L 6.023438 10.800781 C 9.34375 12.402344 13.425781 14.359375 13.425781 14.359375 L 13.628906 14.457031 L 19.375 10.800781 L 21.027344 10.800781 L 19.082031 12.035156 L 18.511719 12.398438 Z M 22.800781 23.199219 L 22.398438 23.199219 L 22.398438 14.398438 L 22.800781 14.398438 Z M 23.199219 13.601562 L 22 13.601562 L 22 12.398438 L 23.199219 12.398438 Z M 21.257812 11.601562 L 21.867188 11.210938 L 22.515625 10.800781 L 23.199219 10.800781 L 23.199219 11.601562 Z M 21.257812 11.601562"/>
</svg>

<svg xmlns="http://www.w3.org/2000/svg" width="32" height="32" viewBox="0 0 24 24">
    <path d="M23.773 10H13.727c.171-.355.273-.863.273-1.602 0-.75-.102-1.003-.281-1.39a6.128 6.128 0 0 1-.156-.356l-.102-.254h-1.063v-1.03l.684-.684a.4.4 0 0 0-.566-.567l-.118.117v-.691c.692-.18 1.204-.8 1.204-1.543V.8h-1.204V0h-2v2.398c0 .747.512 1.368 1.204 1.543v1.094l-.118-.117a.4.4 0 0 0-.566.566l.684.68v.234h-1.063l-.101.254c-.06.145-.11.258-.157.356-.18.387-.281.64-.281 1.39 0 .739.102 1.247.273 1.602H0v4.398h.398V24h2v-9.602h.403v-2h2.39c.766.372 1.602.774 2.434 1.176 2.902 1.395 5.8 2.785 5.8 2.785l.204.098 6.375-4.059h1.195v2h.403V24h2v-9.602H24V10zM12.801 1.602V2a.79.79 0 0 1-.403.691v-1.09zm-1.602.796V.801h.403v2.293a.801.801 0 0 1-.403-.696zm-.398 6c0-.609.062-.746.207-1.05.02-.047.043-.094.066-.149h1.852c.023.055.047.102.066.149.145.304.207.441.207 1.05C13.2 10 12.824 10 12 10c-.824 0-1.2 0-1.2-1.602zm7.082 2.403l-4.309 2.742c-.715-.344-3.226-1.547-5.707-2.742zM1.602 23.199h-.403v-8.8h.403zM2 13.602H.8v-1.204H2zm-1.2-2V10.8h1.137c.266.152.743.383 1.598.8zm12.774 3.941a3861.628 3861.628 0 0 1-9.855-4.742h2.304c3.32 1.601 7.403 3.558 7.403 3.558l.203.098 5.746-3.656h1.652l-1.945 1.234-.57.363zm9.227 7.656h-.403v-8.8h.403zm.398-9.597H22v-1.204h1.2zm-1.941-2l.61-.391.648-.41h.683v.8zm0 0"/>
</svg>
